X: 1
T: Susan McKinnell
C: Mike Briggs
R: strathspey
Z: 2011 John Chambers <jc:trillian.mit.edu>
M: C
L: 1/8
K: D
F>E |\
"D"D>F (A<d) "G"B>c (d<B) | "D"A>B (d<F) "Em"E2 "A"F>E |\
"D"D>F (A<d) "G"B>c (d<B) | "D"A>F "A7"(E<F) "D"D2 :|
F>G |\
"D"A>d (f<e) "G"d>e (d<B) | "D"A>d (f<a) "A7"ed cB |\
"D"A>d (f<e) "G"d>e (d<B) | "G"(3Bcd "A"cde "D"d2 ||
"A"F>G |\
"D"A>d (f<e) "G"d>e (d<B) | "D"A>d (f<a) "Em"e2 "A"dc |\
"G"(3Bcd "A"efg "F#m"(3agf "Em"(3edc | "G"Bcd "A"edc "D"d2 |]
